X:388
T: WIE LIEBLICH IST S HIENIEDEN
N: F0697
O: Europa, Mitteleuropa, Deutschland
R: Geselligkeits -, Bundes - Lied
M: 4/4
L: 1/8
K: Bb
F2 | d3cB2A2 | A2G2F2
F2 | B2B2c2c2 | d4z2
B2 | e3dc2B2 | A2G2F2
c2 | d2d2c2c2 | B4z2

